X:480
T: James Gannon's Jig
S: B.Breathnach: "Ceol Rince na hEireann" II/56 (gan ainm)
Z: B.Black
L: 1/8
M: 6/8
R: jig
K: D
FFF EFE|DFA d2A|ded cAG|EFG AFD|
FFF E2E|DFA dcd|edc ABc|1 dfe d3 :|2 dfe d2||
e|f2a g2e|fdB AB=c|B2B EFG|A2E FED|
f2a g2e|fdB A2A|Bcd ecA|1 d3 d2 :|2 d3 d3||
